appIcon.svg

<svg height="512" viewBox="0 0 512 512" width="512" xmlns="http://www.w3.org/2000/svg" xmlns:xlink="http://www.w3.org/1999/xlink"><defs><path id="a" d="m377.432641 118.947789c-13.803479-7.695815-29.614518-12.101851-46.546312-12.101851-29.854465 0-56.518129 13.717998-74.158268 35.297274-17.758113-21.579276-44.423776-35.297274-74.336728-35.297274-16.81382 0-32.624859 4.406036-46.487325 12.101851-29.735991 16.63186-49.8535878 48.589865-49.8535878 85.361816 0 10.500202 1.7126251 20.571997 4.7799537 29.990935 16.5183841 75.164048 165.8976871 169.883815 165.8976871 169.883815s149.200842-94.719767 165.779714-169.883815c3.064329-9.418938 4.778954-19.490733 4.778954-29.990935 0-36.771951-20.118097-68.670469-49.854088-85.361816"/><filter id="b" height="200.9%" width="187.9%" x="-44%" y="-50.4%"><feOffset dx="0" dy="0" in="SourceAlpha" result="shadowOffsetOuter1"/><feGaussianBlur in="shadowOffsetOuter1" result="shadowBlurOuter1" stdDeviation="50"/><feColorMatrix in="shadowBlurOuter1" type="matrix" values="0 0 0 0 0   0 0 0 0 0   0 0 0 0 0  0 0 0 0.744536911 0"/></filter><mask id="c" fill="#fff"><path d="m146.141456 0h219.717088c50.816568 0 69.243883 5.29105984 87.821661 15.2265641 18.577778 9.9355043 33.157727 24.515453 43.093231 43.0932308s15.226564 37.0050933 15.226564 87.8216611v219.717088c0 50.816568-5.29106 69.243883-15.226564 87.821661s-24.515453 33.157727-43.093231 43.093231-37.005093 15.226564-87.821661 15.226564h-219.717088c-50.8165678 0-69.2438833-5.29106-87.8216611-15.226564s-33.1577265-24.515453-43.0932308-43.093231c-9.93550426-18.577778-15.2265641-37.005093-15.2265641-87.821661v-219.717088c0-50.8165678 5.29105984-69.2438833 15.2265641-87.8216611 9.9355043-18.5777778 24.515453-33.1577265 43.0932308-43.0932308 18.5777778-9.93550426 37.0050933-15.2265641 87.8216611-15.2265641z" fill="#fff" fill-rule="evenodd"/></mask></defs><g fill="none" fill-rule="evenodd" mask="url(#c)"><path d="m0 512h512v-512h-512z" fill="#222" fill-rule="evenodd"/><use fill="#000" filter="url(#b)" xlink:href="#a"/><use fill="#db2b30" fill-rule="evenodd" xlink:href="#a"/></g></svg>

<?xml version="1.0" encoding="UTF-8"?>
<svg width="512px" height="512px" viewBox="0 0 512 512" version="1.1" xmlns="http://www.w3.org/2000/svg" xmlns:xlink="http://www.w3.org/1999/xlink">
    <!-- Generator: Sketch 52.6 (67491) - http://www.bohemiancoding.com/sketch -->
    <title>ShareImage</title>
    <desc>Created with Sketch.</desc>
    <defs>
        <path d="M146.141456,-5.90428975e-15 L365.858544,5.90428975e-15 C416.675112,-3.43056238e-15 435.102427,5.29105984 453.680205,15.2265641 C472.257983,25.1620684 486.837932,39.7420171 496.773436,58.3197949 C506.70894,76.8975727 512,95.3248882 512,146.141456 L512,365.858544 C512,416.675112 506.70894,435.102427 496.773436,453.680205 C486.837932,472.257983 472.257983,486.837932 453.680205,496.773436 C435.102427,506.70894 416.675112,512 365.858544,512 L146.141456,512 C95.3248882,512 76.8975727,506.70894 58.3197949,496.773436 C39.7420171,486.837932 25.1620684,472.257983 15.2265641,453.680205 C5.29105984,435.102427 2.28704159e-15,416.675112 -3.93619317e-15,365.858544 L3.93619317e-15,146.141456 C-2.28704159e-15,95.3248882 5.29105984,76.8975727 15.2265641,58.3197949 C25.1620684,39.7420171 39.7420171,25.1620684 58.3197949,15.2265641 C76.8975727,5.29105984 95.3248882,3.43056238e-15 146.141456,-5.90428975e-15 Z" id="path-1"></path>
        <path d="M377.432641,118.947789 C363.629162,111.251974 347.818123,106.845938 330.886329,106.845938 C301.031864,106.845938 274.3682,120.563936 256.728061,142.143212 C238.969948,120.563936 212.304285,106.845938 182.391333,106.845938 C165.577513,106.845938 149.766474,111.251974 135.904008,118.947789 C106.168017,135.579649 86.0504202,167.537654 86.0504202,204.309605 C86.0504202,214.809807 87.7630453,224.881602 90.8303739,234.30054 C107.348758,309.464588 256.728061,404.184355 256.728061,404.184355 C256.728061,404.184355 405.928903,309.464588 422.507775,234.30054 C425.572104,224.881602 427.286729,214.809807 427.286729,204.309605 C427.286729,167.537654 407.168632,135.639136 377.432641,118.947789" id="path-3"></path>
        <filter x="-44.0%" y="-50.4%" width="187.9%" height="200.9%" filterUnits="objectBoundingBox" id="filter-4">
            <feOffset dx="0" dy="0" in="SourceAlpha" result="shadowOffsetOuter1"></feOffset>
            <feGaussianBlur stdDeviation="50" in="shadowOffsetOuter1" result="shadowBlurOuter1"></feGaussianBlur>
            <feColorMatrix values="0 0 0 0 0   0 0 0 0 0   0 0 0 0 0  0 0 0 0.744536911 0" type="matrix" in="shadowBlurOuter1"></feColorMatrix>
        </filter>
    </defs>
    <g id="ShareImage" stroke="none" stroke-width="1" fill="none" fill-rule="evenodd">
        <mask id="mask-2" fill="white">
            <use xlink:href="#path-1"></use>
        </mask>
        <g id="Path"></g>
        <g id="Icon" mask="url(#mask-2)">
            <polygon id="Page-1" fill="#222222" fill-rule="evenodd" points="0 512 512 512 512 0 0 0"></polygon>
            <g id="Fill-2">
                <use fill="black" fill-opacity="1" filter="url(#filter-4)" xlink:href="#path-3"></use>
                <use fill="#DB2B30" fill-rule="evenodd" xlink:href="#path-3"></use>
            </g>
        </g>
    </g>
</svg>
